icon-themes/sifr_svg/cmd/sc_gridfront.svg

<svg viewBox="0 0 16 16" xmlns="http://www.w3.org/2000/svg"><path d="m12.5625 0-2.28125 2.28125c-.18821.18818-.28125.45346-.28125.71875v1h1c.26531.00004.53057-.09314.71875-.28125l.28125-.28125v5.5625h2v-5.5625l.28125.28125c.18817.18815.45345.28125.71875.28125h1v-1c-.00003-.26531-.09311-.53058-.28125-.71875l-2.28125-2.28125zm-11.5625 1v2h2v-2zm6 0v2h2v-2zm-6 6v2h2v-2zm6 0v2h2v-2zm-6 6v2h2v-2zm6 0v2h2v-2zm6 0v2h2v-2z" fill="#555753"/></svg>

<svg xmlns="http://www.w3.org/2000/svg" viewBox="0 0 16 16">
  <path
     style="fill:#555753"
     d="M 12.5625 0 L 10.28125 2.28125 C 10.09304 2.46943 10 2.73471 10 3 L 10 4 L 11 4 C 11.26531 4.00004 11.53057 3.90686 11.71875 3.71875 L 12 3.4375 L 12 9 L 14 9 L 14 3.4375 L 14.28125 3.71875 C 14.46942 3.9069 14.7347 4 15 4 L 16 4 L 16 3 C 15.99997 2.73469 15.90689 2.46942 15.71875 2.28125 L 13.4375 0 L 12.5625 0 z M 1 1 L 1 3 L 3 3 L 3 1 L 1 1 z M 7 1 L 7 3 L 9 3 L 9 1 L 7 1 z M 1 7 L 1 9 L 3 9 L 3 7 L 1 7 z M 7 7 L 7 9 L 9 9 L 9 7 L 7 7 z M 1 13 L 1 15 L 3 15 L 3 13 L 1 13 z M 7 13 L 7 15 L 9 15 L 9 13 L 7 13 z M 13 13 L 13 15 L 15 15 L 15 13 L 13 13 z "
     />
</svg>
